source/img/sprite/ok.svg

<svg width="8" height="12" viewBox="0 0 8 12" fill="" xmlns="http://www.w3.org/2000/svg">
<path d="M4.0001 1.9702C4.6949 1.9702 5.26 2.52415 5.26 3.2053C5.26 3.8844 4.6949 4.4384 4.0001 4.4384C3.3052 4.4384 2.7401 3.8844 2.7401 3.2053C2.7401 2.52415 3.3052 1.9702 4.0001 1.9702ZM4.0001 6.1864C5.6786 6.1864 7.0433 4.8487 7.0433 3.2053C7.0433 1.55986 5.6786 0.222168 4.0001 0.222168C2.3215 0.222168 0.958994 1.55986 0.958994 3.2053C0.958994 4.8487 2.3215 6.1864 4.0001 6.1864ZM5.2307 8.6197C5.8503 8.4802 6.4468 8.2401 6.9972 7.9016C7.4137 7.6451 7.5393 7.1055 7.2777 6.6973C7.014 6.2869 6.4656 6.1638 6.047 6.4223C4.8017 7.1897 3.1985 7.1897 1.9511 6.4223C1.5346 6.1638 0.984114 6.2869 0.722484 6.6973C0.460864 7.1055 0.586444 7.6451 1.0029 7.9016C1.5534 8.2401 2.1499 8.4802 2.7694 8.6197L1.0678 10.2856C0.720394 10.6262 0.720394 11.1802 1.0678 11.5208C1.2436 11.691 1.4697 11.7772 1.6978 11.7772C1.9259 11.7772 2.1541 11.691 2.3299 11.5208L4.0001 9.8835L5.6724 11.5208C6.0198 11.8634 6.5828 11.8634 6.9323 11.5208C7.2798 11.1802 7.2798 10.6262 6.9323 10.2856L5.2307 8.6197Z" fill=""/>
</svg>

<svg xmlns="http://www.w3.org/2000/svg" width="8" height="12"><path d="M4 2c.7 0 1.3.5 1.3 1.2S4.7 4.4 4 4.4c-.7 0-1.3-.5-1.3-1.2S3.3 2 4 2Zm0 4.2a3 3 0 0 0 3-3 3 3 0 0 0-3-3 3 3 0 0 0-3 3 3 3 0 0 0 3 3Zm1.2 2.4C6 8.5 6.4 8.2 7 8c.4-.3.5-.8.3-1.2A.9.9 0 0 0 6 6.4a4 4 0 0 1-4 0 .9.9 0 0 0-1.3.3c-.2.4-.1 1 .3 1.2.6.3 1.1.6 1.8.7L1 10.3c-.4.3-.4.9 0 1.2a.9.9 0 0 0 1.2 0L4 10l1.7 1.6c.3.4.9.4 1.2 0 .4-.3.4-.9 0-1.2L5.2 8.6Z"/></svg>
